!! 00000] TT[00
!!!OTL: Caoyuan qingge
!!!ARE: Asia, China,Qinghai
!! Ethnic Group: Han
!! Zhongguo Minge Xuan, S. 248 (2)
!!!SCT: C1153
!!!YEM: Copyright 1995, estate of Helmut Schaffrath.
**kern
*ICvox
*Ivox
*M2/4
*k[b-e-]
*B-:
{8dd
8ff
8gg
16ff
16een
=1
8dd
8ff
8gg
16ff
16dd}
=2
{8dd
8ff
16ff
16gg
8een
=3
2dd}
=4
{8dd
8ff
8gg
16ff
16dd
=5
8cc
16dd
16cc
8b-
8cc}
=6
{8dd
8ff
8b-
8cc
=7
8dd
16cc
16dd
8b-
8a
=8
2g}
=9
{8dd
8ff
8gg
16ff
16dd
=10
8cc
16dd
16cc
8b-
8cc}
=11
{8dd
8ff
8b-
8cc
=12
8dd
16cc
16dd
8b-
8a
=13
2g}
==
!!!AGN: Qingge
!!!ONB: ESAC (Essen Associative Code) Database: CHINA_017
!!!AMT: simple duple
!!!AIN: vox
!!!EED: Helmut Schaffrath
!!!EEV: 1.0
*-
